F1 Grump/assets/track outlines/Zandvoort - White_1.svg

<svg xmlns="http://www.w3.org/2000/svg" viewBox="0 0 3388.38 3419.41"><defs><style>.cls-1{fill:#fff;}</style></defs><title>Zandvoort - White_1</title><g id="Layer_2" data-name="Layer 2"><g id="Layer_1-2" data-name="Layer 1"><path class="cls-1" d="M589.43,2877.26c-289.45,0-373.91-60.63-494.46-196-64.9-72.87-156-238.12-37.31-526,66.86-162.11,130.18-315.32,191.54-463.76,204.33-494.37,380.78-921.33,595-1452L908,90C941.09,9.15,1065.58-15,1130.36,8.69c73.42,27,127.39,127.15,109,202.27-9.19,37.43-51.94,138-106.84,265.62-15.35,35.68-29.13,67.7-38.57,90.41-59.46,143.17-59.58,243.69-59.67,324.45-.09,77.66-.17,144.7-51.89,213-28,37-102.3,62.23-221.43,99.49-39.89,12.47-25.1,3.62-60,16.63-35.72,13.29-77.55,61.1-59.75,112.78,20.09,58.39,72.55,74.52,155.93,48.07,71.88-22.75,77.29-21.66,131.53-39.88,145.17-48.77,241.08-81,341.93-86.92,144.38-8.37,239.08,15.49,358.9,45.75,47.67,12,97,24.51,155.54,36.55,119.11,24.57,258.45-3,354.94-70.31,13.48-9.39,159.05-102.65,200.84-122.29,98.21-46,183.47-67.17,259.78-64.71,133.63,4.37,255.5,8.53,394.25,15.39,140.72,7,251,62.42,318.92,160.21,35,50.31,139.48,229.44,16.13,421.78-37.44,58.41-69,101.46-99.53,143.1-69.94,95.39-136,185.49-263.94,448.47-66.57,136.83-264.67,105.68-407.93,70.35-145.52-35.93-363.61-169.75-363.29-290.37-2.62-33.57,20.35-119.8,182.58-178.89,25-9.11,55.77-13.78,94.69-19.7,67-10.17,158.79-24.09,274.11-70.49,91-36.54,128.48-89.55,114.67-162-14.19-74.39-65.26-103.84-202.4-116.77-186.55-17.61-254.46-18.38-427.31-4.81-513.88,40.25-846.25,196.45-1117.46,339.71-68.92,36.58-102.81-24.11-123-60.35-2.56-4.56-5.15-9.23-7.88-13.94-36.27-62.72-67.63-67-112.89-52.85-33.87,10.58-68.59,30.61-51.75,134.81,44.34,274,77.33,443.86,119.1,658.92l6,31c21.42,110.18,8.09,196.83-39.61,257.57-52.66,67-129.28,80.49-170.27,82.54-53.2,2.65-101.09,4-144.33,4M1075.94,65c-41.13,0-94.6,17.62-107.56,49.63a5.1,5.1,0,0,1-.23.56L904.43,264.37c-214,530.3-390.56,957.36-594.94,1451.87C248.13,1864.67,184.82,2017.84,118,2180c-105.25,255.22-29,396.56,25.74,458.1,118,132.51,187,190.32,586.79,170.25,29.88-1.51,85.5-11,122.18-57.69,35.55-45.23,44.62-114.24,27-205.09l-6-31c-41.87-215.61-75-385.92-119.44-661-6.74-41.68-27.23-168.48,96.6-207.2,81.57-25.52,141.62.69,188.89,82.44,2.91,5,5.68,10,8.38,14.8,7.43,13.37,19.9,35.71,26,37.91,0,0,2.73.13,9.4-3.41,277-146.32,616.61-305.87,1142.9-347.09,175.61-13.78,249.4-13,438.57,4.88,112.33,10.6,234.35,33.3,260.31,169.4,11.41,59.81,6.53,169.83-154.34,234.47-122.38,49.21-218.5,63.8-288.69,74.46-35.33,5.37-63.22,9.61-82.13,16.49-128.64,46.85-139.37,104.26-140.19,111.35a31,31,0,0,1,.44,6c-1.35,68.47,168.72,191.88,313.75,227.69,282.37,69.67,320.95-9.57,333.62-35.61,130.5-268.24,198.23-360.63,269.95-458.46,29.94-40.83,60.9-83.06,97.24-139.74,101.64-158.51,14.37-307.76-14.8-349.74C3203.35,1210.53,3113,1166,2991.55,1160c-138.22-6.84-259.81-11-393.11-15.33-66.24-2.29-141.29,17-229.9,58.56-37,17.38-178.91,108.15-191.26,116.74-112.17,78.19-267.58,109.1-405.47,80.68-60-12.33-112.26-25.54-158.37-37.18-114.36-28.9-204.65-51.76-339.08-43.87-92.12,5.4-179.74,34.85-324.92,83.63-54.49,18.3-60.2,17.3-132.61,40.2-30.57,9.73-76.35,19.82-120.47,12.53-56.85-9.35-97.26-44.43-116.87-101.43-28.9-83.84,27.67-168.44,98.63-194.83,36.54-13.59,22.59-5,63.3-17.75,72.38-22.63,171.5-53.63,188.9-76.61,38.58-51,38.64-99.9,38.73-173.92.1-86.53.23-194.21,64.63-349.27,9.52-22.9,23.41-55.19,38.9-91.18,40-93,94.77-220.28,103.41-255.44,10.37-42.32-26.56-110.5-68.13-125.78-8.64-3.16-19.73-4.71-31.92-4.71M2258.73,2037.27v0Zm0-.1s0,0,0,.08,0-.06,0-.08M938.15,102.45h0Z"/><path class="cls-1" d="M701.09,3187.46v-24.87H865.72v32.92l-132.44,188v7.31H865.72v25.25H701.09v-32.56l132.07-188v-8.05Z"/><path class="cls-1" d="M890.23,3415.75l69.51-253.16h61.46l69.51,253.16h-27.8l-18.29-65.12H936.33L918,3415.75Zm90.73-229-38.42,138.66h95.86L1000,3186.73Z"/><path class="cls-1" d="M1130.59,3415.75V3162.59h52.68l97,228.28h7.68V3162.59h27.8v253.16h-51.58l-98.41-228.29h-7v228.29Z"/><path class="cls-1" d="M1468.26,3415.75H1377.9V3162.59h90.36q61.82,0,82,49,11.7,28.17,11.71,73.9,0,95.49-47.56,120.36Q1495.33,3415.76,1468.26,3415.75ZM1533,3285.51q0-72.8-32.56-90.73-13.17-7.32-32.19-7.32h-62.19v203.41h62.19Q1533,3390.87,1533,3285.51Z"/><path class="cls-1" d="M1753.25,3162.59h29.27l-66.22,253.16h-62.92l-66.22-253.16h29.27l58.17,228.28h20.48Z"/><path class="cls-1" d="M2007.88,3291q0,67.68-21.59,98t-78.47,30.37q-56.89,0-78.48-31.1t-21.58-97.86q0-66.76,22-99.15t77.93-32.37q56,0,78.1,32.19T2007.88,3291Zm-171.22-.73q0,55.61,14.63,79.93t56.53,24.33q41.88,0,56.34-23.78t14.45-79.75q0-56-15-81.59t-56.16-25.61q-41.16,0-56,25.43T1836.66,3290.27Z"/><path class="cls-1" d="M2249.33,3291q0,67.68-21.58,98t-78.48,30.37q-56.89,0-78.47-31.1t-21.59-97.86q0-66.76,21.95-99.15t77.93-32.37q56,0,78.11,32.19T2249.33,3291Zm-171.21-.73q0,55.61,14.63,79.93t56.52,24.33q41.89,0,56.34-23.78t14.45-79.75q0-56-15-81.59t-56.15-25.61q-41.16,0-56,25.43T2078.12,3290.27Z"/><path class="cls-1" d="M2329.08,3318.8v96.95h-28.17V3162.59h93.66q40.23,0,60.55,18.65t20.3,58.17q0,58.55-46.46,73.54l48.65,102.8h-31.09l-45.73-96.95Zm65.85-24.87q51.59,0,51.59-53.24t-51.95-53.23h-65.49v106.47Z"/><path class="cls-1" d="M2496.27,3187.83v-25.24H2679.2v25.24H2602v227.92h-27.8V3187.83Z"/></g></g></svg>

<svg width="3388" height="2877" viewBox="0 0 3388 2877" fill="none" xmlns="http://www.w3.org/2000/svg">
<g clip-path="url(#clip0_13_871)">
<path d="M589.43 2877.26C299.98 2877.26 215.52 2816.63 94.9697 2681.26C30.0697 2608.39 -61.0303 2443.14 57.6598 2155.26C124.52 1993.15 187.84 1839.94 249.2 1691.5C453.53 1197.13 629.98 770.17 844.2 239.5L908 90.0002C941.09 9.15025 1065.58 -14.9998 1130.36 8.69024C1203.78 35.6902 1257.75 135.84 1239.36 210.96C1230.17 248.39 1187.42 348.96 1132.52 476.58C1117.17 512.26 1103.39 544.28 1093.95 566.99C1034.49 710.16 1034.37 810.68 1034.28 891.44C1034.19 969.1 1034.11 1036.14 982.39 1104.44C954.39 1141.44 880.09 1166.67 760.96 1203.93C721.07 1216.4 735.86 1207.55 700.96 1220.56C665.24 1233.85 623.41 1281.66 641.21 1333.34C661.3 1391.73 713.76 1407.86 797.14 1381.41C869.02 1358.66 874.43 1359.75 928.67 1341.53C1073.84 1292.76 1169.75 1260.53 1270.6 1254.61C1414.98 1246.24 1509.68 1270.1 1629.5 1300.36C1677.17 1312.36 1726.5 1324.87 1785.04 1336.91C1904.15 1361.48 2043.49 1333.91 2139.98 1266.6C2153.46 1257.21 2299.03 1163.95 2340.82 1144.31C2439.03 1098.31 2524.29 1077.14 2600.6 1079.6C2734.23 1083.97 2856.1 1088.13 2994.85 1094.99C3135.57 1101.99 3245.85 1157.41 3313.77 1255.2C3348.77 1305.51 3453.25 1484.64 3329.9 1676.98C3292.46 1735.39 3260.9 1778.44 3230.37 1820.08C3160.43 1915.47 3094.37 2005.57 2966.43 2268.55C2899.86 2405.38 2701.76 2374.23 2558.5 2338.9C2412.98 2302.97 2194.89 2169.15 2195.21 2048.53C2192.59 2014.96 2215.56 1928.73 2377.79 1869.64C2402.79 1860.53 2433.56 1855.86 2472.48 1849.94C2539.48 1839.77 2631.27 1825.85 2746.59 1779.45C2837.59 1742.91 2875.07 1689.9 2861.26 1617.45C2847.07 1543.06 2796 1513.61 2658.86 1500.68C2472.31 1483.07 2404.4 1482.3 2231.55 1495.87C1717.67 1536.12 1385.3 1692.32 1114.09 1835.58C1045.17 1872.16 1011.28 1811.47 991.09 1775.23C988.53 1770.67 985.94 1766 983.21 1761.29C946.94 1698.57 915.58 1694.29 870.32 1708.44C836.45 1719.02 801.73 1739.05 818.57 1843.25C862.91 2117.25 895.9 2287.11 937.67 2502.17L943.67 2533.17C965.09 2643.35 951.76 2730 904.06 2790.74C851.4 2857.74 774.78 2871.23 733.79 2873.28C680.59 2875.93 632.7 2877.28 589.46 2877.28M1075.94 65.0002C1034.81 65.0002 981.34 82.6202 968.38 114.63C968.314 114.821 968.237 115.008 968.15 115.19L904.43 264.37C690.43 794.67 513.87 1221.73 309.49 1716.24C248.13 1864.67 184.82 2017.84 118 2180C12.7497 2435.22 88.9998 2576.56 143.74 2638.1C261.74 2770.61 330.74 2828.42 730.53 2808.35C760.41 2806.84 816.03 2797.35 852.71 2750.66C888.26 2705.43 897.33 2636.42 879.71 2545.57L873.71 2514.57C831.84 2298.96 798.71 2128.65 754.27 1853.57C747.53 1811.89 727.04 1685.09 850.87 1646.37C932.44 1620.85 992.49 1647.06 1039.76 1728.81C1042.67 1733.81 1045.44 1738.81 1048.14 1743.61C1055.57 1756.98 1068.04 1779.32 1074.14 1781.52C1074.14 1781.52 1076.87 1781.65 1083.54 1778.11C1360.54 1631.79 1700.15 1472.24 2226.44 1431.02C2402.05 1417.24 2475.84 1418.02 2665.01 1435.9C2777.34 1446.5 2899.36 1469.2 2925.32 1605.3C2936.73 1665.11 2931.85 1775.13 2770.98 1839.77C2648.6 1888.98 2552.48 1903.57 2482.29 1914.23C2446.96 1919.6 2419.07 1923.84 2400.16 1930.72C2271.52 1977.57 2260.79 2034.98 2259.97 2042.07C2260.31 2044.05 2260.46 2046.06 2260.41 2048.07C2259.06 2116.54 2429.13 2239.95 2574.16 2275.76C2856.53 2345.43 2895.11 2266.19 2907.78 2240.15C3038.28 1971.91 3106.01 1879.52 3177.73 1781.69C3207.67 1740.86 3238.63 1698.63 3274.97 1641.95C3376.61 1483.44 3289.34 1334.19 3260.17 1292.21C3203.35 1210.53 3113 1166 2991.55 1160C2853.33 1153.16 2731.74 1149 2598.44 1144.67C2532.2 1142.38 2457.15 1161.67 2368.54 1203.23C2331.54 1220.61 2189.63 1311.38 2177.28 1319.97C2065.11 1398.16 1909.7 1429.07 1771.81 1400.65C1711.81 1388.32 1659.55 1375.11 1613.44 1363.47C1499.08 1334.57 1408.79 1311.71 1274.36 1319.6C1182.24 1325 1094.62 1354.45 949.44 1403.23C894.95 1421.53 889.24 1420.53 816.83 1443.43C786.26 1453.16 740.48 1463.25 696.36 1455.96C639.51 1446.61 599.1 1411.53 579.49 1354.53C550.59 1270.69 607.16 1186.09 678.12 1159.7C714.66 1146.11 700.71 1154.7 741.42 1141.95C813.8 1119.32 912.92 1088.32 930.32 1065.34C968.9 1014.34 968.96 965.44 969.05 891.42C969.15 804.89 969.28 697.21 1033.68 542.15C1043.2 519.25 1057.09 486.96 1072.58 450.97C1112.58 357.97 1167.35 230.69 1175.99 195.53C1186.36 153.21 1149.43 85.0302 1107.86 69.7502C1099.22 66.5902 1088.13 65.0402 1075.94 65.0402M2258.73 2037.17C2258.73 2037.17 2258.73 2037.17 2258.73 2037.25C2258.73 2037.33 2258.73 2037.19 2258.73 2037.17Z" fill="white"/>
</g>
<defs>
<clipPath id="clip0_13_871">
<rect width="3388" height="2877" fill="white"/>
</clipPath>
</defs>
</svg>
